!!!COM: Music21
!!!OTL: strathspey_Our-Highland-Queen
!!!OMV: strathspey_Our-Highland-Queen
**kern
*clefG2
*k[f#c#]
*D:
*M4/4
=1
8.dL
16aJk
8.f#L
16aJk
8.dL
16aJk
8.f#L
16aJk
=
12dL 12a 12ff#
12ee
12ddJ
12cc#L
12dd
12bJ
4.a
16f#LL
16dJJ
=
8.c#L
16aJk
8.gL
16aJk
8.f#L
16aJk
8.dL
16aJk
=
12f#L
12e
12dJ
12c#L
12d
12BJ
4A
8AL
24AL
24B
24c#JJ
!!linebreak:original
=
8.dL
16aJk
8.f#L
16aJk
8.dL
16aJk
8.f#L
16aJk
=
12dL 12a 12ff#
12ee
12ddJ
12cc#L
12dd
12bJ
4.a
16gLL
16f#JJ
=
12gL
12b
12eeJ
8.eL
16gJk
12f#L
12a
12ddJ
8.dL 8.a
16AJk 16g
=
12.f#L
24gK
12dJ
24c#KL
12.f#
12eJ
4d
4d
!!linebreak:original
=
8.ddL
16ff#Jk
12aL
12dd
12ff#J
12aaL
12ff#
12ddJ
12aL
12f#
12dJ
=
12AL
12d
12f#J
12aL
12f#
12ddJ
4a
8aL
24bL
24cc#X
24dd#XJJ
=
8.eeL
16ggJk
12bL
12ee
12ggJ
12bbL
12gg
12eeJ
12bL
12g
12eJ
!!linebreak:original
=
12c#L
12e
12gJ
12c#L
12e
12aJ
4d 4f#
8dL 8f#
24aL
24b
24cc#JJ
=
8.ddL
16ff#Jk
12aL
12dd
12ff#J
12aaL
12ff#
12ddJ
12aL
12f#
12dJ
=
12AL
12d
12f#J
12aL
12f#
12ddJ
4a
8aL
16gL
16f#JJ
=
12gL
12b
12eeJ
8.eL
16gJk
12f#L
12a
12ddJ
8.dL 8.a
16AJk 16g
!!linebreak:original
=
12.f#L
24gK
12dJ
24c#KL
12.f#
12eJ
4d
4d
=||
*-
